X:1     %Music
T:Gypsy Davey
B:Singing Together, Spring 1972, BBC Publications
F:http://www.folkinfo.org/songs
M:2/4     %Meter
L:1/16     %
K:E
EE |G2B2 B2cB |G2E2 E3E |G2B2 c2B2 | G2B2-B3
w:It was late last night when the squire came home and ask-ing for his la-_dy.
E |G2B2 (B2c)B |G2F2 E3E |F2FF C2D2 | E4 G3
w: The on-ly an-swer_ that he got, "She's gone with the Gyp-sy Da-vey, 
E |F2FF C2D2 |E4 E4 |]
w:she's gone with the Gyp-sy Da-vey."